packages/ckeditor5-core/theme/icons/low-vision.svg

<svg viewBox="0 0 20 20" xmlns="http://www.w3.org/2000/svg">
<path fill-rule="evenodd" clip-rule="evenodd" d="M1 10.5C0.447715 10.5 0 10.9477 0 11.5V18.5C0 19.0523 0.447715 19.5 1 19.5H19C19.5523 19.5 20 19.0523 20 18.5V11.5C20 10.9477 19.5523 10.5 19 10.5H1ZM6.00618 17.75L5.78488 17.0098H3.94586L3.72456 17.75H2L3.91533 12.5H5.87645L7.79179 17.75H6.00618ZM4.29688 15.8347H5.43387L4.88445 13.9651H4.85392L4.29688 15.8347ZM8.77098 12.5H10.4574V16.407H13.1511V17.75H8.77098V12.5ZM16.8384 17.75V13.843H18.5553V12.5H13.4274V13.843H15.1519V17.75H16.8384Z" /><path fill-rule="evenodd" clip-rule="evenodd" d="M8.01298 7.32559C7.79572 7.10833 7.45172 7.09022 7.21636 7.29843L5.21444 9.5H10.3397L8.01298 7.32559ZM11.7778 9.5H14.8763L13.8609 8.30326C13.7538 8.204 13.6131 8.14886 13.4671 8.14886C13.3211 8.14886 13.1804 8.204 13.0733 8.30326L11.7778 9.5ZM16.1421 9.5V1.83072H3.85788V9.5H2.5V1.45051C2.5 0.925468 2.94357 0.5 3.49578 0.5H16.5133C17.0564 0.5 17.5 0.925468 17.5 1.45051V9.5H16.1421ZM11.5655 4.87674C11.5958 5.10804 11.6714 5.3311 11.7879 5.53319C12.0232 5.94134 12.4109 6.23931 12.8659 6.36154C13.3209 6.48377 13.8058 6.42026 14.2139 6.18497C14.6221 5.94969 14.9201 5.5619 15.0423 5.10693C15.1645 4.65195 15.101 4.16705 14.8657 3.7589C14.7492 3.55681 14.5941 3.37964 14.4091 3.23751C14.2241 3.09538 14.013 2.99108 13.7877 2.93056C13.5624 2.87003 13.3274 2.85447 13.0961 2.88477C12.8648 2.91506 12.6417 2.99062 12.4397 3.10712C12.2376 3.22362 12.0604 3.37879 11.9183 3.56376C11.7761 3.74873 11.6718 3.95989 11.6113 4.18517C11.5508 4.41045 11.5352 4.64545 11.5655 4.87674Z" />
</svg>

<svg viewBox="0 0 20 20" xmlns="http://www.w3.org/2000/svg"><path fill-rule="evenodd" clip-rule="evenodd" d="M1 10.5a1 1 0 0 0-1 1v7a1 1 0 0 0 1 1h18a1 1 0 0 0 1-1v-7a1 1 0 0 0-1-1H1Zm5.006 7.25-.221-.74h-1.84l-.22.74H2l1.915-5.25h1.961l1.916 5.25H6.006Zm-1.71-1.915h1.138l-.55-1.87h-.03l-.557 1.87ZM8.772 12.5h1.686v3.907h2.694v1.343h-4.38V12.5Zm8.067 5.25v-3.907h1.717V12.5h-5.128v1.343h1.725v3.907h1.686Z"/><path d="M8.013 7.326a.577.577 0 0 0-.797-.028L5.214 9.5h5.126L8.013 7.326ZM11.778 9.5h3.098l-1.015-1.197a.58.58 0 0 0-.788 0L11.778 9.5Zm4.364 0V1.83H3.858V9.5H2.5V1.45c0-.525.444-.95.996-.95h13.017c.543 0 .987.425.987.95V9.5h-1.358Zm-4.576-4.623a1.776 1.776 0 1 0 3.522-.462 1.776 1.776 0 0 0-3.522.462Z"/></svg>
